packages/kaspersky-hexa-ui-icons/src/iconsSVGs/16x12/FlagCna.svg

<svg width="16" height="12" viewBox="0 0 16 12" fill="none" xmlns="http://www.w3.org/2000/svg">
<g clip-path="url(#clip0_41818_4378)">
<rect width="16" height="12" rx="2" fill="white"/>
<mask id="mask0_41818_4378" style="mask-type:luminance" maskUnits="userSpaceOnUse" x="0" y="0" width="16" height="12">
<rect width="16" height="12" rx="2" fill="white"/>
</mask>
<g mask="url(#mask0_41818_4378)">
<rect width="16" height="12" fill="#19BFBF"/>
<path fill-rule="evenodd" clip-rule="evenodd" d="M8.38094 8.71306L8.09284 8.14969C8.03585 8.03825 7.92123 7.96812 7.79606 7.96812H7.75491C7.66781 7.96812 7.58416 7.93403 7.52188 7.87313L6.19553 6.57631C6.13138 6.5136 6.09523 6.42768 6.09523 6.33797V5.87358C6.09523 5.78387 6.05907 5.69795 5.99493 5.63524L5.4001 5.05365C5.35642 5.01095 5.32532 4.95707 5.31019 4.89789L4.99777 3.67605C4.9695 3.56548 4.88663 3.47706 4.77812 3.44169L3.80951 3.12602L3.23454 2.84493C3.12015 2.78901 3.04761 2.6728 3.04761 2.54547V2.34194C3.04761 2.15784 3.19685 2.00861 3.38094 2.00861H3.67363C3.76074 2.00861 3.84439 2.0427 3.90667 2.1036L4.09331 2.28608C4.15559 2.34698 4.23924 2.38108 4.32634 2.38108H4.81649C4.9036 2.38108 4.98724 2.34698 5.04953 2.28608L5.23617 2.1036C5.29845 2.0427 5.38209 2.00861 5.4692 2.00861H6.78001C6.83076 2.00861 6.88083 2.02019 6.92641 2.04248L7.54976 2.34721C7.59534 2.36949 7.64541 2.38108 7.69615 2.38108H8.30382C8.35457 2.38108 8.40464 2.36949 8.45022 2.34721L9.07357 2.04248C9.11915 2.02019 9.16922 2.00861 9.21996 2.00861H10.3333C10.5174 2.00861 10.6667 2.15784 10.6667 2.34194V2.42021C10.6667 2.60431 10.5174 2.75355 10.3333 2.75355H10.2381C10.054 2.75355 9.90475 2.90278 9.90475 3.08688V3.66288C9.90475 3.79021 9.97729 3.90642 10.0917 3.96234L10.1869 4.0089C10.4084 4.11716 10.6667 3.95593 10.6667 3.70944V3.45935C10.6667 3.27525 10.8159 3.12602 11 3.12602H11.6233C11.7261 3.12602 11.8095 3.2094 11.8095 3.31225C11.8095 3.41511 11.8929 3.49849 11.9957 3.49849H12.619C12.8031 3.49849 12.9524 3.64772 12.9524 3.83182V4.18817C12.9524 4.22476 12.9463 4.2611 12.9345 4.29573L12.5971 5.28561C12.5802 5.33507 12.552 5.37987 12.5146 5.41639L11.4675 6.44017C11.4417 6.46538 11.4202 6.49462 11.4038 6.52674L11.0842 7.1517C11.0601 7.19868 11.0476 7.2507 11.0476 7.30347V7.73177C11.0476 7.8623 10.9418 7.96812 10.8113 7.96812C10.7225 7.96812 10.6412 7.9184 10.6008 7.83938L10.3786 7.40475C10.3216 7.29331 10.2069 7.22318 10.0818 7.22318H9.34677C9.22161 7.22318 9.10699 7.29331 9.05 7.40475L8.83951 7.81635C8.79077 7.91166 8.79077 8.02458 8.83951 8.11989L9.05 8.5315C9.10699 8.64294 9.22161 8.71306 9.34677 8.71306H9.76887C9.85598 8.71306 9.93962 8.74716 10.0019 8.80806L10.5664 9.35994C10.6305 9.42265 10.6667 9.50857 10.6667 9.59828V9.86961C10.6667 10.0537 10.5174 10.2029 10.3333 10.2029H10.1087C9.98351 10.2029 9.86889 10.1328 9.8119 10.0214L9.61665 9.63957C9.55966 9.52812 9.44504 9.458 9.31987 9.458H8.96582C8.84065 9.458 8.72603 9.38788 8.66904 9.27644L8.38094 8.71306Z" fill="white"/>
</g>
</g>
<defs>
<clipPath id="clip0_41818_4378">
<rect width="16" height="12" fill="white"/>
</clipPath>
</defs>
</svg>

<svg xmlns="http://www.w3.org/2000/svg" width="16" height="12" fill="none" viewBox="0 0 16 12"><g clip-path="url(#a)"><rect width="16" height="12" fill="#fff" rx="2"/><mask id="b" width="16" height="12" x="0" y="0" maskUnits="userSpaceOnUse" style="mask-type:luminance"><rect width="16" height="12" fill="#fff" rx="2"/></mask><g mask="url(#b)"><path fill="#19bfbf" d="M0 0h16v12H0z"/><path fill="#fff" fill-rule="evenodd" d="m8.381 8.713-.2882-.5633a.333.333 0 0 0-.2967-.1816h-.0412a.333.333 0 0 1-.233-.095L6.1955 6.5763a.333.333 0 0 1-.1003-.2383v-.4644a.333.333 0 0 0-.1003-.2384l-.5948-.5815a.333.333 0 0 1-.09-.1558L4.9979 3.676a.333.333 0 0 0-.2197-.2344l-.9686-.3157-.575-.281a.333.333 0 0 1-.1869-.2995v-.2036a.3333.3333 0 0 1 .3333-.3333h.2927a.333.333 0 0 1 .233.095l.1867.1825a.333.333 0 0 0 .233.095h.4902a.333.333 0 0 0 .233-.095l.1867-.1825a.333.333 0 0 1 .233-.095H6.78a.33.33 0 0 1 .1464.0339l.6234.3047a.33.33 0 0 0 .1463.0339h.6077a.33.33 0 0 0 .1464-.0339l.6234-.3047a.33.33 0 0 1 .1464-.0339h1.1133a.3334.3334 0 0 1 .3334.3333v.0783a.3334.3334 0 0 1-.3334.3334h-.0952a.3333.3333 0 0 0-.3333.3333v.576c0 .1273.0725.2435.1869.2994l.0952.0466c.2215.1083.4798-.053.4798-.2995v-.25A.3333.3333 0 0 1 11 3.126h.6233a.186.186 0 0 1 .1862.1863c0 .1028.0834.1862.1862.1862h.6233a.3334.3334 0 0 1 .3334.3333v.3564a.33.33 0 0 1-.0179.1075l-.3374.99a.33.33 0 0 1-.0825.1307l-1.0471 1.0238a.33.33 0 0 0-.0637.0865l-.3196.625a.33.33 0 0 0-.0366.1518v.4283a.2363.2363 0 0 1-.4468.1076l-.2222-.4347a.334.334 0 0 0-.2968-.1815h-.735a.333.333 0 0 0-.2968.1815l-.2105.4116a.333.333 0 0 0 0 .3036l.2105.4116a.333.333 0 0 0 .2968.1816h.422a.333.333 0 0 1 .2331.095l.5645.5518a.334.334 0 0 1 .1003.2384v.2713a.3334.3334 0 0 1-.3334.3333h-.2246a.333.333 0 0 1-.2968-.1815l-.1952-.3818a.333.333 0 0 0-.2968-.1816h-.354a.333.333 0 0 1-.2969-.1816z" clip-rule="evenodd"/></g></g><defs><clipPath id="a"><path fill="#fff" d="M0 0h16v12H0z"/></clipPath></defs></svg>
